X:267
T:The Star Of Munster
R:reel
M:4/4
L:1/8
K:Ador
|:ed|c2Ac B2GB|AGEF GEDG|EAAB cBcd|eaaf gfed|
|cBAc BAGB|AGEF GEDG|EAAB cded|cABG A2:|
|:de|eaab ageg|agbg agef|gfga gfef|gfaf gfdf|
|eaab ageg|agbg agef|g2ge a2ga|bgaf ge:|

